X:210
T: MUEDE BIN ICH GEH ZUR RUH
N: B0247
O: Europa, Mitteleuropa, Deutschland
R: Tageszeiten - Lied, Nacht
M: 4/4
L: 1/8
K: G
 | G3GGGFG | A4z4 |
A3AAAGA | B4z4 |
B3BBBAG | e4z4 |
d3edcEF | G4z4

@@@ Tune index: 2013
